packages/astro-components-stencil/src/icons/pause-circle-filled.svg

<svg xmlns="http://www.w3.org/2000/svg" viewBox="0 0 24 24"><g xmlns="http://www.w3.org/2000/svg" id="pause-circle-filled" fill-rule="nonzero">
            <path d="M12 2C6.48 2 2 6.48 2 12s4.48 10 10 10 10-4.48 10-10S17.52 2 12 2zm-2 14c-.55 0-1-.45-1-1V9c0-.55.45-1 1-1s1 .45 1 1v6c0 .55-.45 1-1 1zm4 0c-.55 0-1-.45-1-1V9c0-.55.45-1 1-1s1 .45 1 1v6c0 .55-.45 1-1 1z"/>
        </g></svg>

<svg width="24" height="24" viewBox="0 0 24 24" fill="none" xmlns="http://www.w3.org/2000/svg">
<path fill-rule="evenodd" clip-rule="evenodd" d="M12 2C6.48 2 2 6.48 2 12C2 17.52 6.48 22 12 22C17.52 22 22 17.52 22 12C22 6.48 17.52 2 12 2ZM10 16C9.45 16 9 15.55 9 15V9C9 8.45 9.45 8 10 8C10.55 8 11 8.45 11 9V15C11 15.55 10.55 16 10 16ZM13 15C13 15.55 13.45 16 14 16C14.55 16 15 15.55 15 15V9C15 8.45 14.55 8 14 8C13.45 8 13 8.45 13 9V15Z" fill="black"/>
</svg>
